humanity-icon-theme/Humanity/devices/16/drive-harddisk.svg

<?xml version="1.0" encoding="UTF-8" standalone="no"?>
<!-- Created with Inkscape (http://www.inkscape.org/) -->

<svg
   xmlns:svg="http://www.w3.org/2000/svg"
   xmlns="http://www.w3.org/2000/svg"
   xmlns:xlink="http://www.w3.org/1999/xlink"
   version="1.0"
   width="16"
   height="16"
   id="svg3297">
  <defs
     id="defs3299">
    <linearGradient
       id="linearGradient8105">
      <stop
         id="stop8107"
         style="stop-color:#f5f5f5;stop-opacity:1"
         offset="0" />
      <stop
         id="stop8109"
         style="stop-color:#e7e7e7;stop-opacity:1"
         offset="0.25027597" />
      <stop
         id="stop8111"
         style="stop-color:#8c8c8c;stop-opacity:1"
         offset="0.69348532" />
      <stop
         id="stop8113"
         style="stop-color:#ddd;stop-opacity:1"
         offset="0.83542866" />
      <stop
         id="stop8115"
         style="stop-color:#a8a8a8;stop-opacity:1"
         offset="1" />
    </linearGradient>
    <linearGradient
       id="linearGradient4236-0">
      <stop
         id="stop4238-4"
         style="stop-color:#eee;stop-opacity:1"
         offset="0" />
      <stop
         id="stop4240-3"
         style="stop-color:#eee;stop-opacity:0"
         offset="1" />
    </linearGradient>
    <linearGradient
       id="linearGradient6309">
      <stop
         id="stop6311"
         style="stop-color:black;stop-opacity:1"
         offset="0" />
      <stop
         id="stop6313"
         style="stop-color:#bbb;stop-opacity:0"
         offset="1" />
    </linearGradient>
    <linearGradient
       id="linearGradient4035">
      <stop
         id="stop4037"
         style="stop-color:#f5f5f5;stop-opacity:1"
         offset="0" />
      <stop
         id="stop4039"
         style="stop-color:#e7e7e7;stop-opacity:1"
         offset="0.47025558" />
      <stop
         id="stop4041"
         style="stop-color:#8c8c8c;stop-opacity:1"
         offset="0.69348532" />
      <stop
         id="stop4043"
         style="stop-color:#ddd;stop-opacity:1"
         offset="0.83542866" />
      <stop
         id="stop4045"
         style="stop-color:#a8a8a8;stop-opacity:1"
         offset="1" />
    </linearGradient>
    <linearGradient
       id="linearGradient2215-9">
      <stop
         id="stop2223-6"
         style="stop-color:#7a7a7a;stop-opacity:1"
         offset="0" />
      <stop
         id="stop2219-1"
         style="stop-color:#474747;stop-opacity:1"
         offset="1" />
    </linearGradient>
    <linearGradient
       id="linearGradient7056-0">
      <stop
         id="stop7064-4"
         style="stop-color:#e6e6e6;stop-opacity:1"
         offset="0" />
      <stop
         id="stop7060-2"
         style="stop-color:#c8c8c8;stop-opacity:1"
         offset="1" />
    </linearGradient>
    <linearGradient
       id="linearGradient3484-2">
      <stop
         id="stop3486-2"
         style="stop-color:#969696;stop-opacity:1"
         offset="0" />
      <stop
         id="stop3488-0"
         style="stop-color:#b4b4b4;stop-opacity:1"
         offset="1" />
    </linearGradient>
    <linearGradient
       id="linearGradient6310-8">
      <stop
         id="stop6312-6"
         style="stop-color:white;stop-opacity:1"
         offset="0" />
      <stop
         id="stop6314-6"
         style="stop-color:white;stop-opacity:0"
         offset="1" />
    </linearGradient>
    <radialGradient
       cx="127.31733"
       cy="143.82751"
       r="78.728165"
       fx="127.31733"
       fy="143.82751"
       id="radialGradient8198"
       xlink:href="#linearGradient8105"
       gradientUnits="userSpaceOnUse"
       gradientTransform="matrix(0.04179653,-0.01388393,0.00338688,0.03797545,-0.54190607,-0.79595187)" />
    <radialGradient
       cx="24"
       cy="42"
       r="21"
       fx="24"
       fy="42"
       id="radialGradient8201"
       xlink:href="#linearGradient6310-8"
       gradientUnits="userSpaceOnUse"
       gradientTransform="matrix(0.33333332,0,0,0.14285711,6.5e-7,8.0000015)" />
    <radialGradient
       cx="142.62215"
       cy="191.85428"
       r="78.728165"
       fx="142.62215"
       fy="191.85428"
       id="radialGradient8208"
       xlink:href="#linearGradient4035"
       gradientUnits="userSpaceOnUse"
       gradientTransform="matrix(0.06165082,0,0,-0.0653716,-1.0370648,17.524179)" />
    <radialGradient
       cx="141.74666"
       cy="206.42612"
       r="78.728165"
       fx="141.74666"
       fy="206.42612"
       id="radialGradient8211"
       xlink:href="#linearGradient4035"
       gradientUnits="userSpaceOnUse"
       gradientTransform="matrix(0.12708936,-0.00212891,9.4059438e-4,0.12249323,-10.298148,-14.500064)" />
    <radialGradient
       cx="4.1993008"
       cy="2.3117516"
       r="7.9999995"
       fx="4.1993008"
       fy="2.3117516"
       id="radialGradient8215"
       xlink:href="#linearGradient7056-0"
       gradientUnits="userSpaceOnUse"
       gradientTransform="matrix(1.1767008,1.0376968,-0.76927742,0.87232541,1.0363585,-3.2771526)" />
    <linearGradient
       x1="4.6104097"
       y1="11.320717"
       x2="2.2246289"
       y2="6.8646717"
       id="linearGradient8217"
       xlink:href="#linearGradient3484-2"
       gradientUnits="userSpaceOnUse"
       gradientTransform="matrix(0.6451613,0,0,0.9797594,0.258064,-6.7257265)" />
    <linearGradient
       x1="12.277412"
       y1="37.205811"
       x2="12.221823"
       y2="33.758667"
       id="linearGradient8220"
       xlink:href="#linearGradient4236-0"
       gradientUnits="userSpaceOnUse"
       gradientTransform="matrix(0.5545779,0,0,0.35955055,-2.132306,1.7913054)" />
    <linearGradient
       x1="7.0625"
       y1="35.28125"
       x2="24.6875"
       y2="35.28125"
       id="linearGradient8223"
       xlink:href="#linearGradient6309"
       gradientUnits="userSpaceOnUse"
       gradientTransform="matrix(0.5545779,0,0,0.35955055,-1.6911436,1.3146057)" />
    <linearGradient
       x1="53.99139"
       y1="87.89592"
       x2="53.99139"
       y2="104.28131"
       id="linearGradient8226"
       xlink:href="#linearGradient2215-9"
       gradientUnits="userSpaceOnUse"
       gradientTransform="matrix(0.1242128,0,0,0.1863981,0.233129,-3.9907482)" />
  </defs>
  <path
     d="m 15.49723,12.5 c -0.304165,2.535038 -0.22639,2.983925 -0.777167,2.983925 -0.21573,0.03617 -8.698317,0 -13.470165,0 -0.598135,0 -0.447005,0.04932 -0.749898,-2.983925 4.8141597,0.139771 10.032192,-0.370561 14.99723,0 z"
     id="rect2992"
     style="fill:url(#linearGradient8226);fill-opacity:1;fill-rule:nonzero;stroke:#353537;stroke-width:1;stroke-linecap:butt;stroke-linejoin:round;stroke-miterlimit:4;stroke-opacity:1;stroke-dasharray:none;stroke-dashoffset:0;marker:none;visibility:visible;display:inline;overflow:visible;enable-background:accumulate" />
  <path
     d="m 2,13 10,0 0,2 L 2.2255647,15 2,13 z"
     id="rect9146"
     style="fill:url(#linearGradient8223);fill-opacity:1;fill-rule:evenodd;stroke:none;stroke-width:2.40899992;marker:none;visibility:visible;display:inline;overflow:visible" />
  <path
     d="m 2.2255639,14.999999 c 0,0 -0.1503759,-1.442332 -0.1503759,-1.442332 1.0179428,1.143093 4.7514263,1.442332 7.3252263,1.442332 0,0 -7.1748504,0 -7.1748504,0 z"
     id="path9148"
     style="opacity:0.81142853;fill:url(#linearGradient8220);fill-opacity:1;fill-rule:evenodd;stroke:none" />
  <path
     d="M 1.4897093,1.4657632 0.514749,12.488885 C 0.505,12.488885 0.5,12.491788 0.5,12.499999 l 14.999999,0 c 0,-0.0082 -0.005,-0.01111 -0.01475,-0.01111 L 14.479867,1.2478485 c 0,0 -0.187746,-0.74340135 -0.909635,-0.74340135 -0.688148,0 -10.5350353,-0.004447 -11.2600103,-0.004447 -0.75868,0 -0.8205124,0.96576325 -0.8205124,0.96576325 z"
     id="rect2990"
     style="fill:url(#radialGradient8215);fill-opacity:1;fill-rule:nonzero;stroke:url(#linearGradient8217);stroke-width:0.99999988;stroke-linecap:round;stroke-linejoin:round;stroke-miterlimit:4;stroke-opacity:1;stroke-dasharray:none;stroke-dashoffset:0;marker:none;visibility:visible;display:inline;overflow:visible;enable-background:accumulate" />
  <path
     d="m 1.4762913,12.5 13.0474177,0"
     id="path2215"
     style="opacity:0.7;fill:none;stroke:white;stroke-width:0.99999988;stroke-linecap:round;stroke-linejoin:round;stroke-miterlimit:4;stroke-opacity:1;stroke-dasharray:none;display:inline" />
  <path
     d="M 9.875,1.03125 C 9.5425325,1.03125 9.2896361,1.1933561 9.28125,1.4375 7.5462296,4.2547045 3.7159646,3.3310272 2.1875,6.6875 2.107281,7.5502069 2.3133647,8.6701052 3.09375,9.375 4.23596,10.40677 6.1379859,11.041207 8.15625,11 12.321615,10.914959 15.990924,8.1997572 12.8125,4.65625 12.794904,4.4114056 12.5625,1.4375 12.5625,1.4375 12.545264,1.1967161 12.267601,1.03125 11.9375,1.03125 l -2.0625,0 z m -0.03125,0.4375 2.0625,0 c 0.119904,0 0.214005,0.027064 0.21875,0.09375 L 11.6875,4.65625 C 15.160987,7.4613605 11.945518,9.7796633 8.25,9.90625 4.8918537,10.021279 2.9699492,8.847871 3.15625,6.84375 4.3344434,3.466723 8.863656,5.0817755 9.625,1.5625 9.6054609,1.4997867 9.7265155,1.46875 9.84375,1.46875 z"
     id="path8117"
     style="fill:url(#radialGradient8211);fill-opacity:1" />
  <path
     d="M 7.9999249,8.9999497 C 7.3338259,9.003979 6.6178906,8.7647964 6.2182574,8.2045172 5.8878761,7.7376942 5.9413392,7.042109 6.3494314,6.63805 6.8327879,6.1198432 7.5866528,5.9505056 8.2718727,6.0129013 8.8789744,6.0691126 9.5104356,6.3443475 9.8353698,6.8829643 10.086844,7.3170303 10.047208,7.9041627 9.7164741,8.2868807 9.3098043,8.7947936 8.6299115,8.9998014 7.9999249,8.9999497 z m 0.033529,-2.05954 C 7.5676631,6.950996 7.0685483,6.9372219 6.6531228,7.1810992 6.3786983,7.3719617 6.3550571,7.7834456 6.5399472,8.0446579 6.791609,8.4367198 7.2662569,8.6084808 7.7086272,8.6682148 8.2791121,8.7399813 8.9061994,8.6113728 9.334753,8.2097584 9.5762055,7.9697526 9.6865747,7.5362831 9.4461096,7.2585712 9.2078802,7.0082999 8.8377224,6.985091 8.5141086,6.9541818 8.3541203,6.9436237 8.1937276,6.9420228 8.0334539,6.9404097 z"
     id="path9400"
     style="fill:url(#radialGradient8208);fill-opacity:1;fill-rule:nonzero;stroke-width:1;stroke-linecap:butt;stroke-linejoin:miter;stroke-miterlimit:4;stroke-opacity:1;stroke-dasharray:none;stroke-dashoffset:0;marker:none;visibility:visible;display:inline;overflow:visible;enable-background:accumulate" />
  <g
     transform="matrix(-0.04685826,0,0,0.07750161,4.3055193,-2.991086)"
     id="g9436">
    <path
       d="m 37.925296,187.15033 c 0.31446,3.45855 5.02375,6.27902 10.51419,6.27902 5.48794,0 9.6432,-2.82047 9.27634,-6.27902 -0.36437,-3.44025 -5.07117,-6.21806 -10.5067,-6.21806 -5.43803,0.002 -9.59329,2.77781 -9.28383,6.21806 l 0,0 z"
       id="path9438"
       style="fill:#535353;fill-opacity:1" />
  </g>
  <g
     transform="matrix(-0.04685826,0,0,0.07750161,16.205519,-2.991086)"
     id="g9496">
    <path
       d="m 37.925296,187.15033 c 0.31446,3.45855 5.02375,6.27902 10.51419,6.27902 5.48794,0 9.6432,-2.82047 9.27634,-6.27902 -0.36437,-3.44025 -5.07117,-6.21806 -10.5067,-6.21806 -5.43803,0.002 -9.59329,2.77781 -9.28383,6.21806 l 0,0 z"
       id="path9498"
       style="fill:#535353;fill-opacity:1" />
  </g>
  <rect
     width="14"
     height="2"
     x="1"
     y="13"
     id="rect6300-3"
     style="opacity:0.2;fill:url(#radialGradient8201);fill-opacity:1;stroke:none" />
  <path
     d="M 3.5490052,1.2794204 C 3.5821222,1.4638603 3.5033392,1.668064 3.4765882,1.8577602 3.3642225,2.4379547 3.248083,3.0174209 3.1387788,3.5982061 3.0364568,3.976483 3.4034434,3.822574 3.4487925,3.8610185 3.9285086,3.6778743 4.4037673,3.4775049 4.8813544,3.2862237 5.3796101,3.0823738 5.8809457,2.8849464 6.3772748,2.677079 6.6902572,2.4909307 6.7820665,2.323762 6.8635898,2.0428768 6.9084532,1.7990145 6.9138614,1.5262921 6.7919595,1.3034032 6.7139126,1.1493881 6.5435087,1.0841579 6.379809,1.1073783 c -0.8675476,0 -1.7350953,0 -2.6026429,0 L 3.5490052,1.2794204 z m 0.588988,0.4439693 c 0.5921265,0 1.184253,-1e-7 1.7763795,-1e-7 0.1871044,0.070513 0.054625,0.2194806 -0.083295,0.2325189 C 5.229708,2.1997992 4.6283387,2.4436898 4.0269694,2.6875804 3.8824333,2.7420385 3.8720481,2.5203138 3.9157358,2.4262942 c 0.037079,-0.2075185 0.074157,-0.415037 0.1112359,-0.6225555 0.041217,-0.021125 0.065659,-0.065363 0.1110215,-0.080349 z"
     id="path8125"
     style="fill:url(#radialGradient8198);fill-opacity:1;fill-rule:nonzero;stroke:none;stroke-width:1;marker:none;visibility:visible;display:inline;overflow:visible;enable-background:accumulate" />
</svg>

<?xml version="1.0" encoding="UTF-8" standalone="no"?>
<!-- Created with Inkscape (http://www.inkscape.org/) -->
<svg id="svg3297" xmlns="http://www.w3.org/2000/svg" height="16" width="16" version="1.0" xmlns:xlink="http://www.w3.org/1999/xlink">
 <defs id="defs3299">
  <linearGradient id="linearGradient4035">
   <stop id="stop4037" style="stop-color:#f5f5f5" offset="0"/>
   <stop id="stop4039" style="stop-color:#e7e7e7" offset=".47026"/>
   <stop id="stop4041" style="stop-color:#8c8c8c" offset=".69349"/>
   <stop id="stop4043" style="stop-color:#ddd" offset=".83543"/>
   <stop id="stop4045" style="stop-color:#a8a8a8" offset="1"/>
  </linearGradient>
  <radialGradient id="radialGradient8198" gradientUnits="userSpaceOnUse" cy="143.83" cx="127.32" gradientTransform="matrix(.041797 -.013884 .0033869 .037975 -.54191 -.79595)" r="78.728">
   <stop id="stop8107" style="stop-color:#f5f5f5" offset="0"/>
   <stop id="stop8109" style="stop-color:#e7e7e7" offset=".25028"/>
   <stop id="stop8111" style="stop-color:#8c8c8c" offset=".69349"/>
   <stop id="stop8113" style="stop-color:#ddd" offset=".83543"/>
   <stop id="stop8115" style="stop-color:#a8a8a8" offset="1"/>
  </radialGradient>
  <radialGradient id="radialGradient8201" gradientUnits="userSpaceOnUse" cy="42" cx="24" gradientTransform="matrix(.33333 0 0 .14286 6.5e-7 8)" r="21">
   <stop id="stop6312-6" style="stop-color:#fff" offset="0"/>
   <stop id="stop6314-6" style="stop-color:#fff;stop-opacity:0" offset="1"/>
  </radialGradient>
  <radialGradient id="radialGradient8208" xlink:href="#linearGradient4035" gradientUnits="userSpaceOnUse" cy="191.85" cx="142.62" gradientTransform="matrix(.061651 0 0 -.065372 -1.0371 17.524)" r="78.728"/>
  <radialGradient id="radialGradient8211" xlink:href="#linearGradient4035" gradientUnits="userSpaceOnUse" cy="206.43" cx="141.75" gradientTransform="matrix(.12709 -.0021289 .00094059 .12249 -10.298 -14.5)" r="78.728"/>
  <radialGradient id="radialGradient8215" gradientUnits="userSpaceOnUse" cy="2.3118" cx="4.1993" gradientTransform="matrix(1.1767 1.0377 -.76928 .87233 1.0364 -3.2772)" r="8">
   <stop id="stop7064-4" style="stop-color:#e6e6e6" offset="0"/>
   <stop id="stop7060-2" style="stop-color:#c8c8c8" offset="1"/>
  </radialGradient>
  <linearGradient id="linearGradient8217" y2="6.8647" gradientUnits="userSpaceOnUse" x2="2.2246" gradientTransform="matrix(.64516 0 0 .97976 .25806 -6.7257)" y1="11.321" x1="4.6104">
   <stop id="stop3486-2" style="stop-color:#969696" offset="0"/>
   <stop id="stop3488-0" style="stop-color:#b4b4b4" offset="1"/>
  </linearGradient>
  <linearGradient id="linearGradient8220" y2="33.759" gradientUnits="userSpaceOnUse" x2="12.222" gradientTransform="matrix(.55458 0 0 .35955 -2.1323 1.7913)" y1="37.206" x1="12.277">
   <stop id="stop4238-4" style="stop-color:#eee" offset="0"/>
   <stop id="stop4240-3" style="stop-color:#eee;stop-opacity:0" offset="1"/>
  </linearGradient>
  <linearGradient id="linearGradient8223" y2="35.281" gradientUnits="userSpaceOnUse" x2="24.688" gradientTransform="matrix(.55458 0 0 .35955 -1.6911 1.3146)" y1="35.281" x1="7.0625">
   <stop id="stop6311" offset="0"/>
   <stop id="stop6313" style="stop-color:#bbb;stop-opacity:0" offset="1"/>
  </linearGradient>
  <linearGradient id="linearGradient8226" y2="104.28" gradientUnits="userSpaceOnUse" x2="53.991" gradientTransform="matrix(.12421 0 0 .18640 .23313 -3.9907)" y1="87.896" x1="53.991">
   <stop id="stop2223-6" style="stop-color:#7a7a7a" offset="0"/>
   <stop id="stop2219-1" style="stop-color:#474747" offset="1"/>
  </linearGradient>
 </defs>
 <path id="rect2992" style="stroke-linejoin:round;stroke:#353537;fill:url(#linearGradient8226)" d="m15.497 12.5c-0.30416 2.535-0.22639 2.9839-0.77717 2.9839-0.21573 0.03617-8.6983 0-13.47 0-0.59814 0-0.447 0.04932-0.7499-2.9839 4.8142 0.13977 10.032-0.37056 14.997 0z"/>
 <path id="rect9146" style="fill-rule:evenodd;fill:url(#linearGradient8223)" d="m2 13h10v2h-9.7744l-0.2256-2z"/>
 <path id="path9148" style="opacity:.81143;fill:url(#linearGradient8220);fill-rule:evenodd" d="m2.2256 15l-0.15038-1.4423c1.0179 1.1431 4.7514 1.4423 7.3252 1.4423h-7.1749z"/>
 <path id="rect2990" style="stroke-linejoin:round;stroke:url(#linearGradient8217);stroke-linecap:round;fill:url(#radialGradient8215)" d="m1.4897 1.4658-0.97495 11.023c-0.00975 0-0.01475 0.003-0.01475 0.011h15c0-0.0082-0.005-0.01111-0.01475-0.01111l-1.005-11.241s-0.18775-0.7434-0.90964-0.7434c-0.68815 0-10.535-0.004447-11.26-0.004447-0.75868 0-0.82051 0.96576-0.82051 0.96576z"/>
 <path id="path2215" style="opacity:.7;stroke-linejoin:round;stroke:#fff;stroke-linecap:round;fill:none" d="m1.4763 12.5h13.047"/>
 <path id="path8117" style="fill:url(#radialGradient8211)" d="m9.875 1.0312c-0.3325 0-0.5854 0.1622-0.5938 0.4063-1.735 2.8172-5.5652 1.8935-7.0937 5.25-0.0802 0.8627 0.1259 1.9826 0.9063 2.6875 1.1422 1.032 3.0442 1.666 5.0624 1.625 4.1658-0.085 7.8348-2.8002 4.6558-6.3438-0.017-0.2448-0.25-3.2187-0.25-3.2187-0.017-0.2408-0.294-0.4063-0.624-0.4063h-2.0625zm-0.03125 0.4375h2.0625c0.1199 0 0.214 0.027064 0.21875 0.09375l-0.437 3.0938c3.473 2.8052 0.258 5.1235-3.438 5.25-3.3581 0.1148-5.2801-1.0583-5.0938-3.0624 1.1782-3.3771 5.7075-1.762 6.4688-5.2813-0.0195-0.0627 0.1015-0.0937 0.2188-0.0937z"/>
 <path id="path9400" style="fill:url(#radialGradient8208)" d="m7.9999 8.9999c-0.6661 0.0041-1.382-0.2351-1.7816-0.7954-0.3304-0.4668-0.277-1.1624 0.1311-1.5665 0.4834-0.5182 1.2373-0.6875 1.9225-0.6251 0.6071 0.0562 1.2385 0.3314 1.5635 0.8701 0.2516 0.434 0.2116 1.0212-0.1189 1.4039-0.4067 0.5079-1.0866 0.7129-1.7166 0.713zm0.033529-2.0595c-0.4657 0.0106-0.9649-0.0032-1.3803 0.2407-0.2744 0.1909-0.298 0.6023-0.1132 0.8636 0.2517 0.392 0.7264 0.5638 1.1687 0.6235 0.5705 0.0718 1.1976-0.0568 1.6262-0.4584 0.2414-0.24 0.3518-0.6735 0.1113-0.9512-0.2382-0.2503-0.6084-0.2735-0.932-0.3044-0.16-0.0106-0.3204-0.0122-0.4806-0.0138z"/>
 <g id="g9436" transform="matrix(-.046858 0 0 .077502 4.3055 -2.9911)">
  <path id="path9438" style="fill:#535353" d="m37.925 187.15c0.31446 3.4586 5.0238 6.279 10.514 6.279 5.4879 0 9.6432-2.8205 9.2763-6.279-0.36437-3.4402-5.0712-6.2181-10.507-6.2181-5.438 0.002-9.5933 2.7778-9.2838 6.2181z"/>
 </g>
 <g id="g9496" transform="matrix(-.046858 0 0 .077502 16.206 -2.9911)">
  <path id="path9498" style="fill:#535353" d="m37.925 187.15c0.31446 3.4586 5.0238 6.279 10.514 6.279 5.4879 0 9.6432-2.8205 9.2763-6.279-0.36437-3.4402-5.0712-6.2181-10.507-6.2181-5.438 0.002-9.5933 2.7778-9.2838 6.2181z"/>
 </g>
 <rect id="rect6300-3" style="opacity:.2;fill:url(#radialGradient8201)" height="2" width="14" y="13" x="1"/>
 <path id="path8125" style="fill:url(#radialGradient8198)" d="m3.549 1.2794c0.0331 0.1845-0.0457 0.3887-0.0724 0.5784-0.1124 0.5802-0.2285 1.1596-0.3378 1.7404-0.1023 0.3783 0.2646 0.2244 0.31 0.2628 0.4797-0.1831 0.955-0.3835 1.4326-0.5748 0.4982-0.2038 0.9995-0.4013 1.4959-0.6091 0.313-0.1862 0.4048-0.3533 0.4863-0.6342 0.0449-0.2439 0.0503-0.5166-0.0716-0.7395-0.0781-0.154-0.2485-0.2192-0.4122-0.196h-2.6026l-0.2282 0.172zm0.58899 0.44397c0.59213 0 1.1843-1e-7 1.7764-1e-7 0.1871 0.070513 0.054625 0.21948-0.083295 0.23252-0.6014 0.2439-1.2028 0.4878-1.8041 0.7317-0.1446 0.0544-0.155-0.1673-0.1113-0.2613 0.037079-0.20752 0.074157-0.41504 0.11124-0.62256 0.041217-0.021125 0.065659-0.065363 0.11102-0.080349z"/>
</svg>
